X:435
T:Derrane's
R:jig
Z:Transcribed by Dave Marshall
M:6/8
K:Bm
|: ~B3 BAF|AFE EFE|DFA def|afe dBA|
~B3 BAF|AFE EFE|DFA def|1 edB B2A:|2 edB Bcd
|:~e3 edB|AFA ~d3|def ~a3|baf ~a3|
baf afa|baf edB|def afe|1 dBA Bcd:|2 dBA B2A||
